icon-themes/sifr_svg/cmd/lc_textattributes.svg

<svg viewBox="0 0 24 24" xmlns="http://www.w3.org/2000/svg"><path d="m3 2c-.554 0-1 .3794493-1 1v3h2v-2h5.5c.276142 0 .5.2238576.5.5v10.5h3.001953l.300781.400391c.178871.238494.424652.404371.697266.501953v-11.402344c0-.2761424 0-.5.5-.5h5.5v2h2v-3c0-.554-.446-1-1-1zm13 9v1.503906c.628416.471311.998772 1.210576 1 1.996094 0 1.380712-1.119288 2.5-2.5 2.5-.786206-.000614-1.526324-.371035-1.998047-1h-1.501953v1.857422c1.371429 1.321851 2.804414 1.714844 4.115234 1.714844h2.742188l3.427734 3.427734h1.714844v-1.714844l-3.427734-3.427734v-2.742188c0-1.511964-.368607-2.743805-1.714844-4.115234zm-6 7.283203v.716797c0 1.104569-.895431 2-2 2v1h8v-1c-.470759 0-.898579-.169242-1.240234-.441406-1.425483-.073811-3.021978-.601058-4.453125-1.980469z" fill="#555753"/></svg>

<svg xmlns="http://www.w3.org/2000/svg" viewBox="0 0 24 24">
  <path
     style="fill:#555753"
     d="M 3 2 C 2.446 2 2 2.3794493 2 3 L 2 6 L 4 6 L 4 4 L 9.5 4 C 9.776142 4 10 4.2238576 10 4.5 L 10 15 L 13.001953 15 L 13.302734 15.400391 C 13.481605 15.638885 13.727386 15.804762 14 15.902344 L 14 4.5 C 14 4.2238576 14 4 14.5 4 L 20 4 L 20 6 L 22 6 L 22 3 C 22 2.446 21.554 2 21 2 L 3 2 z M 16 11 L 16 12.503906 C 16.628416 12.975217 16.998772 13.714482 17 14.5 C 17 15.880712 15.880712 17 14.5 17 C 13.713794 16.999386 12.973676 16.628965 12.501953 16 L 11 16 L 11 17.857422 C 12.371429 19.179273 13.804414 19.572266 15.115234 19.572266 L 17.857422 19.572266 L 21.285156 23 L 23 23 L 23 21.285156 L 19.572266 17.857422 L 19.572266 15.115234 C 19.572266 13.60327 19.203659 12.371429 17.857422 11 L 16 11 z M 10 18.283203 L 10 19 C 10 20.104569 9.104569 21 8 21 L 8 22 L 16 22 L 16 21 C 15.529241 21 15.101421 20.830758 14.759766 20.558594 C 13.334283 20.484783 11.737788 19.957536 10.306641 18.578125 L 10 18.283203 z "
     />
</svg>
